!!!SOCIAL_FUNCTION:	moccasin game songs
!!!PDT:	1913
!!!OTL: No_161_.krn
!!!REG: Great_Lakes
!!!LANG: Non-Tone
!!!LING_GROUP: Algonquin
**kern	**kern
*staff2	*staff1
=1-	=1-
*clefF4	*clefF4
*k[b-e-a-d-g-c-]	*k[b-e-a-d-g-c-]
*M3/4	*M3/4
8GG-^/	16d-\LK
.	8d-\
16r	.
16GG-/	16d-\Jk
8GG-^/	4.d-\
16r	.
16GG-/	.
8GG-^/	.
16r	8B-\
16GG-/	.
=2||	=2||
*M2/4	*M2/4
2r	16d-\LK
.	8.B-\J
.	16d-\LK
.	8.B-\J
=3	=3
2r	16G-\LK
.	8G-\
.	16E-\Jk
.	16G-\LK
.	[8.G-\J
=4	=4
2r	4G-\]
.	16d-\LK
.	8.B-\J
=5	=5
2r	16d-\LK
.	8G-\
.	16G-\Jk
.	12G-\L
.	12E-\
.	24G-\L
.	24E-\JJ
=6||	=6||
*M3/4	*M3/4
2.r	2D-\
.	12G-\L
.	12E-\
.	24G-\L
.	24E-\JJ
=7||	=7||
*M2/4	*M2/4
2r	4.D-\
.	8BB-/
=8	=8
2r	16D-\LK
.	8D-\
.	16BB-\Jk
.	8.GG-/L
.	16GG-/Jk
=9	=9
2r	2GG-/
==	==
*-	*-
